build/Karasa-Jaga/scalable/places/network-workgroup-symbolic.svg

<svg height="16" width="16" xmlns="http://www.w3.org/2000/svg"><g fill="#bebebe"><path d="m2.7865285 10.437133c-1.0282937.499786-1.6666017 1.124397-1.6666017 1.837535v.427335c0 1.588055 3.0783654 2.863137 6.8800732 2.863136 3.801708 0 6.880073-1.275081 6.880073-2.863136v-.427335c0-.713138-.638308-1.337749-1.666602-1.837535-.217382.188161-.450042.35734-.686404.520815l.683734.472737c.227806.14244.496321.287968.614293.413979.187219.199994.221679.32199.221679.430004v.427335c0 .127865-.05152.287421-.291122.523484-.239601.236064-.657048.504748-1.209888.734479-1.105681.459466-2.7380479.771872-4.545763.771872-1.8077152-.000001-3.4400826-.312406-4.5457626-.771872-.5528398-.229731-.9702871-.498415-1.2098887-.734479-.2396017-.236063-.291121-.395625-.291121-.523484v-.427335c0-.108006.034459-.23001.2216793-.430004.1246969-.133202.4020974-.287394.6490132-.438016l.7051007-.435346c-.2534047-.172111-.515046-.335091-.7424924-.534169z" fill-rule="evenodd"/><path d="m6.1221508 11.372582c-3.0759663-1.125893-4.4657713-4.8363339-2.8935566-7.7250077 1.7215814-3.16314307 5.7270764-3.90259138 8.3466108-1.5408593 1.264908 1.1404234 1.856035 2.454644 1.856035 4.1264181 0 3.8282609-3.7285678 6.4500319-7.3090892 5.1394489zm3.852935-1.084685c.6398982-.3056677.7116522-.4610975.7760822-1.6807202.064096-1.2135314.011772-1.3827648-.540314-1.744442-.6592781-.4319718-.820459-1.357749-.3101639-1.7812724.1656239-.1374585.6780569-.2857684 1.1386919-.3295788.567617-.0539807.863276-.2153307.917308-.5006233.102638-.5417543-.609665-.8167107-1.184991-.4574171-.719361.4492496-.9093592.3271012-.7815331-.502414.1107011-.7183784.0440231-.8162879-.8384936-1.2310178-1.3474678-.6332295-2.0414461-.4040625-2.3999491.7925236-.1656002.5527095-.6007079 1.1997087-1.0358406 1.540255-.8442322.660699-.8228125 1.5138983.0311909 1.2428492.6648736-.2110243 1.3332282.2130754 1.6888738 1.0716683.2638174.6369189.2366332.8942998-.2072151 1.9623133-.5886533 1.4164482-.6287323 1.7930502-.2106746 1.9793872.4802307.214051 2.1896116.0051 2.9570248-.361511zm-4.4578943-1.2637621c0-.3140181-.1620932-.7054689-.360208-.8698895-.1981149-.1644207-.3602092-.6170059-.3602092-1.0057479 0-.8865022-.3888571-1.6357817-.8489391-1.6357817-.7557901 0-.3024796 2.5657221.6682104 3.7821898.3958937.4961179.9011459.3442999.9011459-.2707707z" stroke-width="1.127652"/></g></svg>

<?xml version="1.0" encoding="UTF-8" standalone="no"?>
<!-- Created with Inkscape (http://www.inkscape.org/) -->

<svg
   xmlns:dc="http://purl.org/dc/elements/1.1/"
   xmlns:cc="http://creativecommons.org/ns#"
   xmlns:rdf="http://www.w3.org/1999/02/22-rdf-syntax-ns#"
   xmlns:svg="http://www.w3.org/2000/svg"
   xmlns="http://www.w3.org/2000/svg"
   xmlns:xlink="http://www.w3.org/1999/xlink"
   xmlns:sodipodi="http://sodipodi.sourceforge.net/DTD/sodipodi-0.dtd"
   xmlns:inkscape="http://www.inkscape.org/namespaces/inkscape"
   width="16px"
   height="16px"
   id="svg3925"
   version="1.1"
   inkscape:version="0.92.2 (unknown)"
   sodipodi:docname="network-workgroup-symbolic.svg">
  <defs
     id="defs3927">
    <linearGradient
       gradientTransform="matrix(2.7209303,0,0,2.6722576,-117.22021,-66.213873)"
       gradientUnits="userSpaceOnUse"
       xlink:href="#linearGradient6404-7-5"
       id="linearGradient28897"
       y2="16.997795"
       x2="62.988873"
       y1="14.090554"
       x1="62.988873" />
    <linearGradient
       id="linearGradient6404-7-5">
      <stop
         offset="0"
         style="stop-color:#f9f9f9;stop-opacity:1"
         id="stop6406-1-8" />
      <stop
         offset="1"
         style="stop-color:#c9c9c9;stop-opacity:1"
         id="stop6408-9-6" />
    </linearGradient>
    <linearGradient
       id="linearGradient3104-8-8-97-4-6-11-5-5-1-0">
      <stop
         offset="0"
         style="stop-color:#000000;stop-opacity:0.32173914"
         id="stop3106-5-4-3-5-0-2-1-0-1-2" />
      <stop
         offset="1"
         style="stop-color:#000000;stop-opacity:0.27826086"
         id="stop3108-4-3-7-8-2-0-7-9-4-9" />
    </linearGradient>
    <linearGradient
       gradientTransform="matrix(2.1683519,0,0,2.2464645,141.9485,-68.590473)"
       gradientUnits="userSpaceOnUse"
       xlink:href="#linearGradient3104-8-8-97-4-6-11-5-5-1-0"
       id="linearGradient22372"
       y2="3.6336823"
       x2="-51.786404"
       y1="53.514328"
       x1="-51.786404" />
    <linearGradient
       id="linearGradient9235">
      <stop
         offset="0"
         style="stop-color:#ffffff;stop-opacity:1"
         id="stop9237" />
      <stop
         offset="0.1088333"
         style="stop-color:#ffffff;stop-opacity:0.23529412"
         id="stop9239" />
      <stop
         offset="0.97909725"
         style="stop-color:#ffffff;stop-opacity:0.15686275"
         id="stop9241" />
      <stop
         offset="1"
         style="stop-color:#ffffff;stop-opacity:0.39215687"
         id="stop9243" />
    </linearGradient>
    <linearGradient
       gradientTransform="matrix(2.6658408,0,0,2.6469079,-143.33284,-66.049513)"
       gradientUnits="userSpaceOnUse"
       xlink:href="#linearGradient9235"
       id="linearGradient22378"
       y2="44.260689"
       x2="97.538795"
       y1="8.8103228"
       x1="97.538795" />
    <linearGradient
       id="linearGradient5060-820">
      <stop
         offset="0"
         style="stop-color:#000000;stop-opacity:1"
         id="stop2681" />
      <stop
         offset="1"
         style="stop-color:#000000;stop-opacity:0"
         id="stop2683" />
    </linearGradient>
    <radialGradient
       gradientTransform="matrix(-0.08277505,0,0,0.06641689,62.347829,75.518568)"
       gradientUnits="userSpaceOnUse"
       xlink:href="#linearGradient5060-820"
       id="radialGradient22392"
       fy="486.64789"
       fx="605.71429"
       r="117.14286"
       cy="486.64789"
       cx="605.71429" />
    <linearGradient
       id="linearGradient5060-179">
      <stop
         offset="0"
         style="stop-color:#000000;stop-opacity:1"
         id="stop2675" />
      <stop
         offset="1"
         style="stop-color:#000000;stop-opacity:0"
         id="stop2677" />
    </linearGradient>
    <radialGradient
       gradientTransform="matrix(0.08277507,0,0,0.06641689,65.628912,75.518568)"
       gradientUnits="userSpaceOnUse"
       xlink:href="#linearGradient5060-179"
       id="radialGradient22390"
       fy="486.64789"
       fx="605.71429"
       r="117.14286"
       cy="486.64789"
       cx="605.71429" />
    <linearGradient
       id="linearGradient5048-585">
      <stop
         offset="0"
         style="stop-color:#000000;stop-opacity:0"
         id="stop2667" />
      <stop
         offset="0.5"
         style="stop-color:#000000;stop-opacity:1"
         id="stop2669" />
      <stop
         offset="1"
         style="stop-color:#000000;stop-opacity:0"
         id="stop2671" />
    </linearGradient>
    <linearGradient
       gradientTransform="matrix(0.2134205,0,0,0.06641689,-13.147881,75.518568)"
       gradientUnits="userSpaceOnUse"
       xlink:href="#linearGradient5048-585"
       id="linearGradient22388"
       y2="609.50507"
       x2="302.85715"
       y1="366.64789"
       x1="302.85715" />
    <linearGradient
       id="linearGradient4632-0-6-4">
      <stop
         offset="0"
         style="stop-color:#b4cee1;stop-opacity:1"
         id="stop4634-4-4-7" />
      <stop
         offset="1"
         style="stop-color:#5d9fcd;stop-opacity:1"
         id="stop4636-3-1-5" />
    </linearGradient>
    <linearGradient
       gradientTransform="matrix(1,0,0,1.0266674,147,-70.186593)"
       gradientUnits="userSpaceOnUse"
       xlink:href="#linearGradient4632-0-6-4"
       id="linearGradient22398"
       y2="119.05979"
       x2="-91"
       y1="43.999817"
       x1="-91" />
    <linearGradient
       id="linearGradient6129-963-697-142-998-580-273">
      <stop
         offset="0"
         style="stop-color:#0a0a0a;stop-opacity:0.498"
         id="stop2661" />
      <stop
         offset="1"
         style="stop-color:#0a0a0a;stop-opacity:0"
         id="stop2663" />
    </linearGradient>
    <linearGradient
       gradientTransform="matrix(3.036796,0,0,2.6909701,-8.8831134,-65.364613)"
       gradientUnits="userSpaceOnUse"
       xlink:href="#linearGradient6129-963-697-142-998-580-273"
       id="linearGradient22404"
       y2="36.599415"
       x2="22.934725"
       y1="49.629246"
       x1="22.934725" />
    <linearGradient
       id="linearGradient8272">
      <stop
         offset="0"
         style="stop-color:#ffffff;stop-opacity:1"
         id="stop8274" />
      <stop
         offset="0.0221225"
         style="stop-color:#ffffff;stop-opacity:0.23529412"
         id="stop8276" />
      <stop
         offset="0.97909725"
         style="stop-color:#ffffff;stop-opacity:0.15686275"
         id="stop8278" />
      <stop
         offset="1"
         style="stop-color:#ffffff;stop-opacity:0.39215687"
         id="stop8280" />
    </linearGradient>
    <linearGradient
       gradientTransform="matrix(2.6658408,0,0,2.7170994,-143.33284,-69.198823)"
       gradientUnits="userSpaceOnUse"
       xlink:href="#linearGradient8272"
       id="linearGradient22410"
       y2="44.260689"
       x2="97.538795"
       y1="16.962049"
       x1="97.538795" />
    <linearGradient
       inkscape:collect="always"
       xlink:href="#linearGradient8272"
       id="linearGradient3412"
       gradientUnits="userSpaceOnUse"
       gradientTransform="matrix(2.6658408,0,0,2.7170994,-261.12926,-23.427332)"
       x1="97.538795"
       y1="16.962049"
       x2="97.538795"
       y2="44.260689" />
    <linearGradient
       inkscape:collect="always"
       xlink:href="#linearGradient6129-963-697-142-998-580-273"
       id="linearGradient3415"
       gradientUnits="userSpaceOnUse"
       gradientTransform="matrix(3.036796,0,0,2.6909701,-126.67953,-19.593122)"
       x1="22.934725"
       y1="49.629246"
       x2="22.934725"
       y2="36.599415" />
    <linearGradient
       inkscape:collect="always"
       xlink:href="#linearGradient4632-0-6-4"
       id="linearGradient3418"
       gradientUnits="userSpaceOnUse"
       gradientTransform="matrix(1,0,0,1.0266674,29.203578,-24.415102)"
       x1="-91"
       y1="43.999817"
       x2="-91"
       y2="119.05979" />
    <linearGradient
       inkscape:collect="always"
       xlink:href="#linearGradient3104-8-8-97-4-6-11-5-5-1-0"
       id="linearGradient3428"
       gradientUnits="userSpaceOnUse"
       gradientTransform="matrix(2.1683519,0,0,2.2464645,24.152079,-22.818982)"
       x1="-51.786404"
       y1="53.514328"
       x2="-51.786404"
       y2="3.6336823" />
    <linearGradient
       inkscape:collect="always"
       xlink:href="#linearGradient6404-7-5"
       id="linearGradient3431"
       gradientUnits="userSpaceOnUse"
       gradientTransform="matrix(2.7209303,0,0,2.6722576,-235.01663,-20.442382)"
       x1="62.988873"
       y1="14.090554"
       x2="62.988873"
       y2="16.997795" />
    <linearGradient
       inkscape:collect="always"
       xlink:href="#linearGradient5048-585"
       id="linearGradient3433"
       gradientUnits="userSpaceOnUse"
       gradientTransform="matrix(0.2134205,0,0,0.06641689,-13.147881,75.518568)"
       x1="302.85715"
       y1="366.64789"
       x2="302.85715"
       y2="609.50507" />
    <radialGradient
       inkscape:collect="always"
       xlink:href="#linearGradient5060-179"
       id="radialGradient3435"
       gradientUnits="userSpaceOnUse"
       gradientTransform="matrix(0.08277507,0,0,0.06641689,65.628912,75.518568)"
       cx="605.71429"
       cy="486.64789"
       fx="605.71429"
       fy="486.64789"
       r="117.14286" />
    <radialGradient
       inkscape:collect="always"
       xlink:href="#linearGradient5060-820"
       id="radialGradient3437"
       gradientUnits="userSpaceOnUse"
       gradientTransform="matrix(-0.08277505,0,0,0.06641689,62.347829,75.518568)"
       cx="605.71429"
       cy="486.64789"
       fx="605.71429"
       fy="486.64789"
       r="117.14286" />
  </defs>
  <sodipodi:namedview
     id="base"
     pagecolor="#ffffff"
     bordercolor="#666666"
     borderopacity="1.0"
     inkscape:pageopacity="0.0"
     inkscape:pageshadow="2"
     inkscape:zoom="14.8125"
     inkscape:cx="-3.8556883"
     inkscape:cy="8.5547382"
     inkscape:current-layer="layer1"
     showgrid="true"
     inkscape:grid-bbox="true"
     inkscape:document-units="px"
     inkscape:window-width="1366"
     inkscape:window-height="706"
     inkscape:window-x="0"
     inkscape:window-y="0"
     inkscape:window-maximized="1" />
  <metadata
     id="metadata3930">
    <rdf:RDF>
      <cc:Work
         rdf:about="">
        <dc:format>image/svg+xml</dc:format>
        <dc:type
           rdf:resource="http://purl.org/dc/dcmitype/StillImage" />
        <dc:title />
      </cc:Work>
    </rdf:RDF>
  </metadata>
  <g
     id="layer1"
     inkscape:label="Layer 1"
     inkscape:groupmode="layer">
    <path
       style="fill:#bebebe;fill-opacity:1;fill-rule:evenodd;stroke:none;stroke-width:1.367468"
       d="M 2.7865285,10.437133 C 1.7582348,10.936919 1.1199268,11.56153 1.1199268,12.274668 v 0.427335 c 0,1.588055 3.0783654,2.863137 6.8800732,2.863136 3.801708,0 6.880073,-1.275081 6.880073,-2.863136 v -0.427335 c 0,-0.713138 -0.638308,-1.337749 -1.666602,-1.837535 -0.217382,0.188161 -0.450042,0.35734 -0.686404,0.520815 l 0.683734,0.472737 c 0.227806,0.14244 0.496321,0.287968 0.614293,0.413979 0.187219,0.199994 0.221679,0.32199 0.221679,0.430004 v 0.427335 c 0,0.127865 -0.05152,0.287421 -0.291122,0.523484 -0.239601,0.236064 -0.657048,0.504748 -1.209888,0.734479 C 11.440082,14.419432 9.8077151,14.731838 8,14.731838 6.1922848,14.731837 4.5599174,14.419432 3.4542374,13.959966 2.9013976,13.730235 2.4839503,13.461551 2.2443487,13.225487 2.004747,12.989424 1.9532277,12.829862 1.9532277,12.702003 v -0.427335 c 0,-0.108006 0.034459,-0.23001 0.2216793,-0.430004 0.1246969,-0.133202 0.4020974,-0.287394 0.6490132,-0.438016 L 3.5290209,10.971302 C 3.2756162,10.799191 3.0139749,10.636211 2.7865285,10.437133 Z"
       id="path3230"
       inkscape:connector-curvature="0" />
    <path
       inkscape:connector-curvature="0"
       id="path3194"
       d="M 6.1221508,11.372582 C 3.0461845,10.246689 1.6563795,6.5362481 3.2285942,3.6475743 4.9501756,0.48443123 8.9556706,-0.25501708 11.575205,2.106715 c 1.264908,1.1404234 1.856035,2.454644 1.856035,4.1264181 0,3.8282609 -3.7285678,6.4500319 -7.3090892,5.1394489 z m 3.852935,-1.084685 C 10.614984,9.9822293 10.686738,9.8267995 10.751168,8.6071768 10.815264,7.3936454 10.76294,7.224412 10.210854,6.8627348 9.5515759,6.430763 9.390395,5.5049858 9.9006901,5.0814624 10.066314,4.9440039 10.578747,4.795694 11.039382,4.7518836 11.606999,4.6979029 11.902658,4.5365529 11.95669,4.2512603 12.059328,3.709506 11.347025,3.4345496 10.771699,3.7938432 10.052338,4.2430928 9.8623398,4.1209444 9.9901659,3.2914292 10.100867,2.5730508 10.034189,2.4751413 9.1516723,2.0604114 7.8042045,1.4271819 7.1102262,1.6563489 6.7517232,2.852935 6.586123,3.4056445 6.1510153,4.0526437 5.7158826,4.39319 4.8716504,5.053889 4.8930701,5.9070883 5.7470735,5.6360392 6.4119471,5.4250149 7.0803017,5.8491146 7.4359473,6.7077075 7.6997647,7.3446264 7.6725805,7.6020073 7.2287322,8.6700208 6.6400789,10.086469 6.5999999,10.463071 7.0180576,10.649408 c 0.4802307,0.214051 2.1896116,0.0051 2.9570248,-0.361511 z M 5.5171915,9.0241349 c 0,-0.3140181 -0.1620932,-0.7054689 -0.360208,-0.8698895 C 4.9588686,7.9898247 4.7967743,7.5372395 4.7967743,7.1484975 c 0,-0.8865022 -0.3888571,-1.6357817 -0.8489391,-1.6357817 -0.7557901,0 -0.3024796,2.5657221 0.6682104,3.7821898 0.3958937,0.4961179 0.9011459,0.3442999 0.9011459,-0.2707707 z"
       style="fill:#bebebe;fill-opacity:1;stroke-width:1.12765169"
       sodipodi:nodetypes="ssssssccsscsssscssssssssscs" />
  </g>
</svg>
